src/assets/icons/flag.svg

<svg viewBox="0 0 24 24">
<path d="M14.4 6l-0.4-2h-9v17h2v-7h5.6l0.4 2h7v-10z"></path>
</svg>

﻿<?xml version="1.0" encoding="utf-8"?>
<!DOCTYPE svg PUBLIC "-//W3C//DTD SVG 1.1//EN" "http://www.w3.org/Graphics/SVG/1.1/DTD/svg11.dtd">
<svg xmlns="http://www.w3.org/2000/svg" xmlns:xlink="http://www.w3.org/1999/xlink" version="1.1" baseProfile="full" width="24" height="24" viewBox="0 0 24.00 24.00" enable-background="new 0 0 24.00 24.00" xml:space="preserve">
	<path fill="#000000" fill-opacity="1" stroke-linejoin="round" d="M 14.4,6L 14,4L 5,4L 5,21L 7,21L 7,14L 12.6,14L 13,16L 20,16L 20,6L 14.4,6 Z "/>
</svg>
